X: 1
T:She Walked Thro' The Fair
M:C
L:1/8
Q:80
C:
S:Slow Air
K:HP
[| {g}A2{g}Bc{Gdc}d2{g}e4d2|
{g}c2A2{g}G2{d}A4{g}ef|
{gf}g2{ag}a2e2{g}fe-e2c2|  !
{Gdc}d4{g}cd{gef}e4{g}ef{gf}g2{ag}a2e2{g}fe-e2c2|
{Gdc}d4{g}cd{gef}e6|
M:C {g}A2B{g}c{Gdc}d2{g}cd|  !
{g}e2{A}e2{g}e4{g}dB|
{d}G4{g}A{d}A{gAGAG}A4|]
